X: 10241
Q: "Lively."
M: 6/8
L: 1/8
K: G
d |\
g3 fed | efg d3 | c3 BAG | F>GA DEF |\
EFG ABc | (d2B) g3 | (e2c) (a2f) | gga b2 D |
EFG ABc | (d2B) g3 | (e2c) (a2f) | ggb g3 :: Bc |\
ddd dgd | BBB BdB | G3 AGA | B>cB B2c |\
ddd dgd | BBB Bga | {a}b2g {b}agf | g3 g2 :|


